dist/assets/img/cases/3.svg

<svg width="113" height="73" viewBox="0 0 113 73" fill="none" xmlns="http://www.w3.org/2000/svg">
<path fill-rule="evenodd" clip-rule="evenodd" d="M54.56 57.3415H30.5064C23.6057 57.3344 16.9897 54.6104 12.1101 49.7674C7.23059 44.9243 4.4861 38.3578 4.47888 31.5087V29.3259C4.48675 22.4772 7.23153 15.9113 12.111 11.0688C16.9905 6.2263 23.6061 3.50267 30.5064 3.49552H82.4971C87.3424 3.48852 92.0924 4.83256 96.2056 7.37449L98.4668 4.67052C93.709 1.61713 88.1628 -0.00491433 82.4971 1.11844e-05H30.5064C22.672 0.00846982 15.161 3.10113 9.62126 8.59942C4.08152 14.0977 0.965554 21.5526 0.957031 29.3283V31.5112C0.966209 39.2865 4.08246 46.7407 9.62213 52.2385C15.1618 57.7363 22.6725 60.8286 30.5064 60.837H51.6474L54.56 57.3415ZM27.0712 33.0328V26.3269L27.0737 27.3717L41.5202 10.0957H34.1744L27.0712 19.5178V10.0957H21.1123V33.0328H27.0712ZM36.1609 32.9911V52.7105H42.7712V32.9911H49.9214V27.271H28.9785V32.9911H36.1609ZM64.8233 45.2667L90.675 14.2718C86.4973 11.2497 81.3156 9.92257 76.1862 10.561C71.0568 11.1994 66.3657 13.7553 63.0692 17.7077C59.7726 21.6601 58.1188 26.7114 58.4447 31.8322C58.7707 36.9529 61.0519 41.7575 64.8233 45.2667ZM67.3662 47.3371L93.1882 16.3643C96.7955 19.9117 98.9349 24.6704 99.1855 29.7044C99.4361 34.7384 97.7799 39.6832 94.5425 43.5664C91.3052 47.4495 86.721 49.9898 81.6918 50.6876C76.6626 51.3854 71.5524 50.1902 67.3662 47.3371ZM98.9888 9.37341L101.233 6.66943C104.612 9.41613 107.335 12.8734 109.205 16.7915C111.074 20.7097 112.044 24.991 112.043 29.3263V31.5091C112.035 39.2845 108.919 46.739 103.38 52.2372C97.8409 57.7354 90.3305 60.8284 82.4965 60.8375H56.0752L58.9903 57.342H82.4965C89.3942 57.3342 96.0074 54.6119 100.886 49.7721C105.765 44.9324 108.51 38.37 108.522 31.5239V29.341C108.522 25.5197 107.667 21.746 106.019 18.2927C104.37 14.8394 101.969 11.7929 98.9888 9.37341ZM30.4146 64.8116C31.1037 65.1736 31.679 65.717 32.0774 66.3822C32.4759 67.0474 32.682 67.8086 32.6733 68.5824C32.6842 69.3644 32.4795 70.1346 32.0814 70.8095C31.6833 71.4845 31.1069 72.0387 30.4146 72.4122C29.6888 72.7903 28.8814 72.9879 28.0617 72.9879C27.2421 72.9879 26.4346 72.7903 25.7089 72.4122C25.0219 72.0437 24.4491 71.4965 24.052 70.8292C23.6483 70.1488 23.4394 69.3719 23.4477 68.5824C23.437 67.8072 23.6423 67.0442 24.0409 66.3775C24.4394 65.7109 25.0158 65.1664 25.7064 64.8042C26.4339 64.4317 27.2406 64.2373 28.0593 64.2373C28.8779 64.2373 29.6846 64.4317 30.4121 64.8042L30.4146 64.8116ZM26.9101 66.4413C26.5488 66.6601 26.2529 66.9707 26.0531 67.341C25.8441 67.7316 25.7348 68.1672 25.7348 68.6094C25.7348 69.0517 25.8441 69.4872 26.0531 69.8778C26.2557 70.2481 26.5508 70.5604 26.9101 70.7849C27.2598 71.004 27.6655 71.1191 28.0791 71.1168C28.4904 71.1194 28.8937 71.0041 29.2406 70.7849C29.5953 70.5617 29.8834 70.2486 30.0753 69.8778C30.2807 69.4838 30.3854 69.0457 30.3799 68.6021C30.3844 68.1632 30.2798 67.7301 30.0753 67.341C29.8843 66.9716 29.5959 66.6606 29.2406 66.4413C28.8923 66.226 28.4894 66.1134 28.0791 66.1169C27.6667 66.1156 27.262 66.2279 26.9101 66.4413ZM64.3277 64.377H62.0986V72.8428H64.3277V64.377ZM75.4185 64.377H77.4865V72.8428H75.5398L71.6712 67.7815V72.8428H69.5908V64.377H71.5424L75.4259 69.4752L75.4185 64.377ZM89.4899 64.377H82.7607V72.8453H89.6212V71.0828H84.9873V69.4875L89.0515 69.4752V67.725H84.9873V66.1419H89.4899V64.377ZM53.8691 64.377H53.8295L51.6426 67.5848V72.8428H57.4826V70.9599H53.8691V64.377ZM42.1362 72.8084L38.2923 67.784V72.8428H36.2119V64.377H38.171L42.0544 69.4752L42.0396 64.377H44.1101V70.4584L42.1362 72.8084Z" fill="white"/>
</svg>

<svg width="113" height="73" viewBox="0 0 113 73" fill="none" xmlns="http://www.w3.org/2000/svg"><path fill-rule="evenodd" clip-rule="evenodd" d="M54.56 57.342H30.506a26.155 26.155 0 01-18.396-7.575A25.763 25.763 0 014.48 31.51v-2.183a25.762 25.762 0 017.632-18.257 26.155 26.155 0 0118.395-7.573h51.991a26.01 26.01 0 0113.709 3.878l2.26-2.703A29.525 29.525 0 0082.498 0h-51.99A29.695 29.695 0 009.62 8.6 29.25 29.25 0 00.957 29.327v2.183a29.25 29.25 0 008.665 20.73 29.694 29.694 0 0020.884 8.598h21.141l2.913-3.495zm-27.489-24.31v-6.705l.003 1.045L41.52 10.096h-7.346l-7.103 9.422v-9.422h-5.959v22.937h5.96zm9.09-.04V52.71h6.61V32.99h7.15v-5.72H28.98v5.72h7.182zm28.662 12.275l25.852-30.995a20.424 20.424 0 00-14.489-3.711 20.35 20.35 0 00-13.117 7.147 20.058 20.058 0 00-4.624 14.124 20.096 20.096 0 006.378 13.435zm2.543 2.07l25.822-30.973a20.113 20.113 0 015.998 13.34 20.084 20.084 0 01-4.644 13.862 20.373 20.373 0 01-12.85 7.122 20.454 20.454 0 01-14.326-3.35zM98.99 9.373l2.244-2.704a29.326 29.326 0 017.972 10.122 29.096 29.096 0 012.838 12.535v2.183a29.248 29.248 0 01-8.663 20.728 29.694 29.694 0 01-20.883 8.6H56.075l2.915-3.495h23.506a26.155 26.155 0 0018.39-7.57 25.764 25.764 0 007.636-18.248V29.34a25.65 25.65 0 00-2.503-11.048 25.824 25.824 0 00-7.03-8.92zM30.415 64.812a4.23 4.23 0 011.662 1.57c.399.665.605 1.427.596 2.2a4.266 4.266 0 01-.592 2.228 4.31 4.31 0 01-1.666 1.602 5.093 5.093 0 01-4.706 0 4.283 4.283 0 01-2.261-3.83 4.184 4.184 0 01.593-2.204 4.227 4.227 0 011.665-1.574 5.163 5.163 0 014.706 0l.003.008zm-3.505 1.63a2.364 2.364 0 00-.857.899 2.688 2.688 0 000 2.537c.203.37.498.682.857.907.35.219.756.334 1.17.332a2.15 2.15 0 001.16-.332c.355-.223.643-.536.835-.907.206-.394.31-.832.305-1.276.004-.439-.1-.872-.305-1.261a2.3 2.3 0 00-.834-.9 2.174 2.174 0 00-1.162-.324 2.241 2.241 0 00-1.169.324zm37.418-2.065h-2.23v8.466h2.23v-8.466zm11.09 0h2.069v8.466H75.54l-3.87-5.063v5.062h-2.08v-8.466h1.951l3.884 5.098-.008-5.098zm14.072 0h-6.73v8.468h6.861v-1.762h-4.634v-1.596l4.065-.012v-1.75h-4.065v-1.583h4.503v-1.765zm-35.62 0h-.04l-2.187 3.208v5.258h5.84V70.96h-3.614v-6.583zm-11.734 8.431l-3.844-5.024v5.059h-2.08v-8.466h1.959l3.883 5.098-.014-5.098h2.07v6.081l-1.974 2.35z" fill="#fff"/></svg>
